X: 29391
T: Niamh's Capers
R: reel
M: 4/4
K: Dmajor
FA A/A/A GABd|ABdf fedA|FA A/A/A GABd|g/g/g fg efdA|
FA A/A/A GB B/B/B|Ad d/d/d ce e/e/e|defa bf f/f/f|1 afef efdA:|2 afef efdf||
|:ad d/d/d b2db|afdf efdf|ad d/d/d b2db|afdf efdf|
ad d/d/d b2db|afdf efdf|ad d/d/d bd d/d/d|1 afdf efdf:|2 afdf efdA||

